icons/svg/wii.svg

﻿<?xml version="1.0" encoding="utf-8"?>
<!DOCTYPE svg PUBLIC "-//W3C//DTD SVG 1.1//EN" "http://www.w3.org/Graphics/SVG/1.1/DTD/svg11.dtd">
<svg xmlns="http://www.w3.org/2000/svg" xmlns:xlink="http://www.w3.org/1999/xlink" version="1.1" baseProfile="full" width="24" height="24" viewBox="0 0 24.00 24.00" enable-background="new 0 0 24.00 24.00" xml:space="preserve">
	<path fill="#000000" fill-opacity="1" stroke-linejoin="round" d="M 17.8446,16.9391L 15.9653,16.9391L 15.9653,10.7943L 17.8446,10.7943L 17.8446,16.9391 Z M 18.0222,8.5767C 18.0222,9.19378 17.5221,9.69403 16.9048,9.69403C 16.2881,9.69403 15.7876,9.19378 15.7876,8.5767C 15.7876,7.95988 16.2881,7.4594 16.9048,7.4594C 17.5221,7.4594 18.0222,7.95988 18.0222,8.5767 Z M 21.8223,16.9391L 19.9433,16.9391L 19.9433,10.7943L 21.8223,10.7943L 21.8223,16.9391 Z M 22,8.5767C 22,9.19378 21.4998,9.69403 20.8828,9.69403C 20.2658,9.69403 19.7657,9.19378 19.7657,8.5767C 19.7657,7.95988 20.2658,7.4594 20.8828,7.4594C 21.4998,7.4594 22,7.95988 22,8.5767 Z M 12.9014,8.0519L 14.899,8.0519L 12.783,15.5C 12.783,15.5 12.4952,17.0406 11.2848,17.0406C 10.0744,17.0406 9.78683,15.5 9.78683,15.5L 8.44935,10.6418L 7.11239,15.5C 7.11239,15.5 6.82456,17.0406 5.61418,17.0406C 4.4038,17.0406 4.11597,15.5 4.11597,15.5L 2.00001,8.0519L 3.9976,8.0519L 5.72407,14.6708L 7.11239,9.30462C 7.43385,7.95035 8.44935,7.9674 8.44935,7.9674C 8.44935,7.9674 9.46511,7.95035 9.78683,9.30462L 11.1749,14.6708L 12.9014,8.0519 Z "/>
</svg>

<svg xmlns="http://www.w3.org/2000/svg" version="1.1" baseProfile="full" width="24" height="24" viewBox="0 0 24.00 24.00" xml:space="preserve"><path fill="#000" fill-opacity="1" stroke-linejoin="round" d="M17.845 16.94h-1.88v-6.146h1.88v6.145zm.177-8.363c0 .617-.5 1.117-1.117 1.117s-1.117-.5-1.117-1.117.5-1.118 1.117-1.118 1.117.5 1.117 1.117zm3.8 8.362h-1.88v-6.146h1.88v6.145zM22 8.576c0 .617-.5 1.117-1.117 1.117s-1.117-.5-1.117-1.117.5-1.118 1.117-1.118S22 7.96 22 8.576zm-9.1-.525h2L12.782 15.5s-.288 1.54-1.498 1.54-1.498-1.54-1.498-1.54L8.45 10.642 7.11 15.5s-.287 1.54-1.498 1.54c-1.21 0-1.498-1.54-1.498-1.54L2 8.052h1.998l1.726 6.62 1.388-5.367C7.434 7.95 8.45 7.967 8.45 7.967s1.015-.017 1.337 1.338l1.388 5.366L12.9 8.053z"/></svg>
